X:125
T:The Mucking of Geordie's Byre
M:6/8
L:1/8
K:D
d|:"D"ABA AFA|"D"d2 e f2 a|"G"gfe "D"f2 d|"G"efd B2 d|
"D"ABA AFA|"D"d2 e f2 g|"G"afd "A"efe|1 "D"d3 "G"dcB:|2 "D"d3 def||
|:"G"gfg gag|"D"fdf faf|"Em"ede efg|"D"fed "G"B2 d|
"D"ABA AFA|"D"d2 e f2 g|"G"afd "A"efe|1 "D"d3 "G"def :|2 "D"d3 d2||
